src/assets/icons/paperclip.svg

<svg width="14" height="14" viewBox="0 0 14 14" fill="none" xmlns="http://www.w3.org/2000/svg">
<g id="paperclip">
<g clip-path="url(#clip0_156_4583)">
<path id="Vector" d="M4.55339 14C3.39183 14 2.23107 13.5829 1.34629 12.7488C0.478323 11.9299 -6.10352e-05 10.8381 -6.10352e-05 9.67494C-6.10352e-05 8.51103 0.477523 7.41916 1.34629 6.59865L7.3973 0.887945C8.65166 -0.295982 10.6932 -0.295982 11.9476 0.887945C12.6155 1.51793 12.9987 2.37526 12.9987 3.24059C12.9987 4.01947 12.6859 4.74311 12.1188 5.27864L6.06054 10.9902C5.31977 11.689 4.11421 11.689 3.37423 10.9902C3.00384 10.6395 2.79985 10.1721 2.79985 9.67254C2.79985 9.17304 3.00384 8.70635 3.37423 8.35653L8.96525 3.0869C9.20524 2.85956 9.58603 2.87076 9.81322 3.11171C10.0404 3.35346 10.0292 3.73289 9.78762 3.96103L4.1974 9.23067C4.07021 9.34994 3.99981 9.50764 3.99981 9.67254C3.99981 9.83825 4.07021 9.99514 4.1982 10.1168C4.47979 10.381 4.95578 10.3818 5.23817 10.116L11.2956 4.40451C11.7116 4.01226 11.7988 3.55438 11.7988 3.24059C11.7988 2.70506 11.5532 2.16553 11.1244 1.76128C10.3244 1.00482 9.02205 1.00482 8.22127 1.76128L2.17027 7.47199C1.54469 8.06195 1.2007 8.84403 1.2007 9.67334C1.2007 10.5027 1.54549 11.2847 2.17027 11.8739C3.48463 13.1155 5.62296 13.1155 6.93732 11.8739L12.9883 6.16319C13.2291 5.93585 13.6091 5.94625 13.8363 6.188C14.0635 6.42975 14.0531 6.80918 13.8115 7.03732L7.76049 12.748C6.87652 13.5821 5.71496 14 4.55339 14Z" fill="black"/>
</g>
</g>
<defs>
<clipPath id="clip0_156_4583">
<rect width="14" height="14" fill="white"/>
</clipPath>
</defs>
</svg>

<svg xmlns="http://www.w3.org/2000/svg" fill="none" viewBox="0 0 14 14"><g clip-path="url(#a)"><path fill="#000" d="M4.553 14a4.67 4.67 0 0 1-3.207-1.251C.478 11.929 0 10.839 0 9.675s.478-2.256 1.346-3.076L7.397.888c1.255-1.184 3.296-1.184 4.55 0C12.617 1.518 13 2.375 13 3.24c0 .778-.313 1.502-.88 2.038L6.06 10.99a1.983 1.983 0 0 1-2.687 0 1.796 1.796 0 0 1 0-2.634l5.591-5.27a.6.6 0 1 1 .823.875l-5.59 5.27A.6.6 0 0 0 4 9.673c0 .165.07.322.198.444a.78.78 0 0 0 1.04-.001l6.058-5.711c.416-.393.503-.85.503-1.164 0-.536-.246-1.075-.675-1.48a2.14 2.14 0 0 0-2.903 0l-6.05 5.711a3 3 0 0 0-.97 2.201c0 .83.344 1.612.97 2.2 1.314 1.243 3.452 1.243 4.766 0l6.051-5.71a.6.6 0 1 1 .824.874L7.76 12.748A4.67 4.67 0 0 1 4.553 14"/></g><defs><clipPath id="a"><path fill="#fff" d="M0 0h14v14H0z"/></clipPath></defs></svg>
